X:8
T:John Naughton's
R:Reel
S:Michael O'Raihillaigh (concertina)
D:Private tape
Z:Bernie Stocks
M:4/4
K:G %i.e.Am
EAAB cecA | BGGF (3GBcdB | AEAB cece | dBdB BAAG | EAAB cecA | dBBd gedg |
eaab g2ba |1 gedB A3G :|2 gedB A2Bd |: e2ag edBA | BGGF (3GBcdB | ABcd e2af |
g3a ged2 | eaa2 bgg2 | aged BedB | AEEE GABd |1 gedB A2Bd :|2 gedB A3G ||
